X: 31
T:The Castle
T:Sean Ryan's
C:Sean Ryan
M:6/8
R:Jig
A:Ireland
K:G
B|~c3 ~B3|AGE DB,G,|~A,3 EDB,|DEG AGE|
~c2A (3Bcd B|AGE DB,G,|~A,3 ECE|DB,G, A,2:|
B|cBA ~a3|bag edB|GBd ~g3|G,B,D GBG|
cBc d^cd|ede gab|age dBG|EFG A2 :|
%%newpage
